html/dist/img/svg/airplane.svg

<svg width="493" height="507" viewBox="0 0 493 507" fill="none" xmlns="http://www.w3.org/2000/svg"><circle cx="246.5" cy="246.5" r="246" stroke="#fff"/><path fill-rule="evenodd" clip-rule="evenodd" d="M257.932 491.431c-.188-.574-.498-.892-1.227-1.259-1.269-.639-1.67-.693-5.11-.693l-2.696-.001-5.921-5.91c-3.592-3.585-6.039-5.983-6.219-6.096-.602-.374-.878-.435-2.106-.463-1.207-.028-1.366-.002-1.534.256-.247.377-.382.139 3.693 6.494 2.086 3.254 3.773 5.933 3.748 5.954-.025.021-.665.083-1.422.139-1.318.097-5.287.472-5.659.535-.166.028-.196.003-.438-.366-2.189-3.341-2.765-4.169-2.941-4.23-.273-.096-1.475-.082-1.717.019-.2.084-.383.344-.383.546 0 .059.277 1.352.616 2.875l.615 2.767-.622 2.799c-.678 3.048-.681 3.079-.356 3.321.144.107.264.125.915.142.554.014.801-.003.948-.065.169-.071.423-.424 1.691-2.349 1.484-2.254 1.492-2.266 1.671-2.236.558.094 6.3.615 6.784.615.152.001.29.025.308.054.019.029-.438.788-1.014 1.685-4.98 7.762-6.518 10.181-6.547 10.299-.053.212.114.544.329.655.164.084.344.094 1.309.071 1.235-.029 1.51-.089 2.112-.464.18-.113 2.627-2.511 6.219-6.096l5.921-5.91h2.696c3.442-.001 3.888-.062 5.118-.702.612-.318.907-.579 1.1-.975.191-.39.245-1.026.119-1.411z" fill="#fff"/></svg>

<svg width="493" height="507" viewBox="0 0 493 507" fill="none" xmlns="http://www.w3.org/2000/svg">
<circle cx="246.5" cy="246.5" r="246" stroke="white"/>
<path fill-rule="evenodd" clip-rule="evenodd" d="M257.932 491.431C257.744 490.857 257.434 490.539 256.705 490.172C255.436 489.533 255.035 489.479 251.595 489.479L248.899 489.478L242.978 483.568C239.386 479.983 236.939 477.585 236.759 477.472C236.157 477.098 235.881 477.037 234.653 477.009C233.446 476.981 233.287 477.007 233.119 477.265C232.872 477.642 232.737 477.404 236.812 483.759C238.898 487.013 240.585 489.692 240.56 489.713C240.535 489.734 239.895 489.796 239.138 489.852C237.82 489.949 233.851 490.324 233.479 490.387C233.313 490.415 233.283 490.39 233.041 490.021C230.852 486.68 230.276 485.852 230.1 485.791C229.827 485.695 228.625 485.709 228.383 485.81C228.183 485.894 228 486.154 228 486.356C228 486.415 228.277 487.708 228.616 489.231L229.231 491.998L228.609 494.797C227.931 497.845 227.928 497.876 228.253 498.118C228.397 498.225 228.517 498.243 229.168 498.26C229.722 498.274 229.969 498.257 230.116 498.195C230.285 498.124 230.539 497.771 231.807 495.846C233.291 493.592 233.299 493.58 233.478 493.61C234.036 493.704 239.778 494.225 240.262 494.225C240.414 494.226 240.552 494.25 240.57 494.279C240.589 494.308 240.132 495.067 239.556 495.964C234.576 503.726 233.038 506.145 233.009 506.263C232.956 506.475 233.123 506.807 233.338 506.918C233.502 507.002 233.682 507.012 234.647 506.989C235.882 506.96 236.157 506.9 236.759 506.525C236.939 506.412 239.386 504.014 242.978 500.429L248.899 494.519L251.595 494.519C255.037 494.518 255.483 494.457 256.713 493.817C257.325 493.499 257.62 493.238 257.813 492.842C258.004 492.452 258.058 491.816 257.932 491.431Z" fill="white"/>
</svg>
